!!!COM: Scarlatti, Domenico
!!!CDT: 1685-1757
!!!OTL: Sonata in C major, L.51, K.166
!!!SCT: K. 166
!!!SCT: L. 51
!!!OMD: Allegro ma non tanto ([half]=88)
**kern	**kern	**dynam
*staff2	*staff1	*staff1/2
*Icemba	*Icemba	*
*I"L.51 (K.166)	*I"L.51 (K.166)	*
*>[A,A1,A,B,B1,B,B2]	*>[A,A1,A,B,B1,B,B2]	*>[A,A1,A,B,B1,B,B2]
*>norep[A,B,B2]	*>norep[A,B,B2]	*>norep[A,B,B2]
*>A	*>A	*>A
*clefF4	*clefG2	*
*k[]	*k[]	*
*M2/2	*M2/2	*
*MM176	*MM176	*
=1-	=1-	=1-
4C+ 4c+	4r	.
!	!	!LO:DY:b
4r	(4gg	p
2r	4ee	.
.	4ff	.
=2	=2	=2
4r	2.gg	.
*clefG2	*	*
(4c	.	.
4d	.	.
4e	8ffL	.
.	8eeJ	.
=3	=3	=3
.	(16qqdd	.
4f	4.ddT)	.
4g	.	.
.	16ccLL	.
.	16bJJ	.
.	(16qqcc	.
4a	4.ccT)	.
4e	.	.
.	16bLL	.
.	16ccJJ	.
=4	=4	=4
.	(16qqdd	.
4f	4.ddT)	.
4g	.	.
.	16ccLL	.
.	16bJJ	.
.	(16qqcc	.
4a	4.ccT)	.
4e	.	.
.	16ddLL	.
.	16eeJJ	.
!!LO:LB:g=z
=5	=5	=5
.	(16qqdd	.
4f	4.ddT)	.
4g	.	.
.	16ccLL	.
.	16ddJJ	.
.	(16qqee	.
4c)	4.eet)	.
(4c	.	.
.	16ddLL	.
.	16eeJJ	.
=6	=6	=6
.	(16qqee	.
4d)	4.ffT)	.
(4d	.	.
.	16eeLL	.
.	16ffJJ	.
.	(16qqgg	.
4e)	4.ggT)	.
(4e	.	.
.	16ffLL	.
.	16ggJJ	.
=7	=7	=7
4f)	12aaL	mf
.	12gg	.
.	12ffJ	.
(4f	12eeL	.
.	12dd	.
.	12ccJ	.
4g	4b	.
.	(16qqcc	.
4a	8.ccTL)	.
.	32bLL	.
.	32ccJJJ)	.
!!LO:LB:g=z
=8	=8	=8
.	(8qqcc	.
4g)	2.dd)	>
*clefF4	*	*
(4G	.	.
4A	.	.
4B)	4gg~	] p
=9	=9	=9
4r	(8ggL	.
.	8eeJ)	.
*ped	*	*
(4c'	(2ee	.
4c'	.	.
4c')	4gg')	.
=10	=10	=10
*Xped	*	*
4r	(12ggL	.
.	12ff#	.
.	12eeJ	.
*ped	*	*
(4B'	2dd	.
4B'	.	.
4B')	4dd')	.
=11	=11	=11
*ped	*	*
4r	(4ddd'	mf >
(4B-'	4bb-'	.
4B-'	4gg'	.
4B-')	4ee')	] p
!!LO:LB:g=z
=12	=12	=12
*Xped	*	*
4r	(4cc#'	.
*ped	*	*
(4A'	4b-'	.
4A')	4g')	.
*Xped	*	*below
4c#~	4gg~	mf
=13	=13	=13
(4d	(8ffL	.
.	8eeJ	.
4f	2dd)	.
4g)	.	.
4c#~	4gg~	p
=14	=14	=14
(4d	(8ffL	.
.	8eeJ	.
4f	2dd)	.
4g)	.	.
4c#~	4gg~	.
=15	=15	=15
2d	(4ff	.
.	4aa)	.
*ped	*	*
2r	(>4ff'	.
.	4dd'	.
!!LO:LB:g=z
=16	=16	=16
4r	4b'/	.
*Xped	*	*
(4G	4g'	.
4A	4f')	.
4B	4ff~	mf
=17	=17	=17
4c	(8eeL	.
.	8ddJ	.
4e	2cc)	.
4f)	.	.
4B~	4ff~	p
=18	=18	=18
(4c	(8eeL	.
.	8ddJ	.
4e	2cc')	.
4f)	.	.
4B~	4ff~	.
=19	=19	=19
4r	(4ee	.
(4c	4gg)	.
4e	(4.ggT	.
4c)	.	.
.	16ff#LL	.
.	16eeJJ	.
=20	=20	=20
4r	4dd)	.
(4B	(4bb	mf
4c)	4aa)	.
4d~	4cc~	p
!!LO:LB:g=z
=21	=21	=21
4r	(4b	.
(4c	4gg)	.
4e	(4.ggT	.
4c)	.	.
.	16ff#LL	.
.	16eeJJ	.
=22	=22	=22
4r	4dd)	.
(4B	(4bb	mf
4c)	4aa)	.
4d~	4cc~	p
=23	=23	=23
4G' (4d'	(8bL	.
.	8cc	.
4G' 4d')	8cc	<
.	8ddJ	.
4G' (4c'	8eeL	[
.	8cc	>
4G' 4c')	8a	.
.	8f#J	]
=24	=24	=24
4G' (4d'	(8bL)	.
.	8cc	.
4G' 4d')	8cc	<
.	8ddJ	.
4G' (4c'	8eeL	[
.	8cc	>
4G' 4c')	8a	.
.	8f#J)	]
=25	=25	=25
4G' (4d'	(>8bL	<
.	8cc	.
4G' 4d')	8cc	.
.	8ddJ	.
4G' (4c'	8ddL	.
.	8ee	.
4G' 4c')	8ee	.
.	8ff#J	.
!!LO:LB:g=z
=26	=26	=26
4G' (4B'	8ggL	[
.	8dd	>
4G' 4B')	8dd	.
.	8bJ	]
(4c	8eeL	.
.	8cc	.
4A	8cc	.
.	8aJ	.
=27	=27	=27
4B)	8ddL	.
.	8b	.
(4B	8b	.
.	8gJ)	.
4c	(4.aT	.
4d)	.	.
.	16gLL	.
.	16aJJ	.
=28	=28	=28
4G' (4d'	8bL	.
.	8cc	[
4G' 4d')	8cc	<
.	8ddJ	.
4G' (4c'	8eeL	[
.	8cc	>
4G' 4c')	8a	.
.	8f#J)	]
=29	=29	=29
4G' (4d'	(8bL	.
.	8cc	.
4G' 4d')	8cc	<
.	8ddJ	.
4G' (4c'	8eeL	[
.	8cc	>
4G' 4c')	8a	.
.	8f#J)	]
=30	=30	=30
4G' (4d'	(8bL	<
.	8cc	.
4G' 4d')	8cc	.
.	8ddJ	.
4G' (4c'	8ddL	.
.	8ee	.
4G' 4c')	8ee	.
.	8ff#J	.
!!LO:LB:g=z
=31	=31	=31
4G' (4B'	8ggL	[
.	8dd	>
4G' 4B')	8dd	.
.	8bJ	]
(4c	8eeL	.
.	8cc	.
4A	8cc	.
.	8aJ	.
=32	=32	=32
4B)	8ddL	.
.	8b	.
(4B	8b	.
.	8gJ)	.
4c	(<4.aT	.
4d)	.	.
.	16gLL	.
.	16aJJ	.
=33	=33	=33
4G' (4d'	8gL)	.
.	(8gg	.
4G' 4d')	8ee	.
.	[8cc^J	.
4F#' (4d'	8ccL]	.
.	8b	.
4F#' 4d')	8b	.
.	8aJ	[
=34	=34	=34
4G' (4d'	8bL)	<
.	(8bb	.
4G' 4d')	8gg	.
.	[8ee^J	.
4F#' (4d'	8eeL]	.
.	8dd	.
4F#' 4d')	8dd	.
.	8ccJ	.
!!LO:LB:g=z
=35	=35	=35
4G' (4d'	8bL)	.
.	(8ddd	.
4G' 4d')	8bb	.
.	[8gg^J	.
4A' (4c'	8ggL]	.
.	8ff#	.
4A' 4c')	8ff#	.
.	8eeJ	.
=36	=36	=36
(4B	8ddL	mf
.	8bb	.
4c	8ee	.
.	8cccJ	.
4d')	4bb')	.
4D'	4aa'M	.
=37	=37	=37
4G' (4d'	8r	.
.	(8ggL	p
4G' 4d')	8ee	.
.	[8ccJ	.
4F#' (4d'	8ccL]	.
.	8b	.
4F#' 4d')	8b	.
.	8aJ	.
=38	=38	=38
4G' (4d'	8bL)	<
.	(8bb	.
4G' 4d')	8gg	.
.	[8eeJ	.
4F#' (4d'	8eeL]	.
.	8dd	.
4F#' 4d')	8dd	.
.	8ccJ	.
!!LO:LB:g=z
=39	=39	=39
4G' (4d'	8bL)	.
.	(8ddd	.
4G' 4d')	8bb	.
.	[8ggJ	.
4A' (4c'	8ggL]	.
.	8ff#	.
4A' 4c')	8ff#	.
.	8eeJ	.
=40	=40	=40
(4B	8ddL	f
.	8bb	.
4c	8ee	.
.	8cccJ	.
4d')	4bb')	.
4D'	4aa'M	.
=41	=41	=41
4r	(8dL	mf
.	8dd	.
(4c	8e	.
.	8ccJ	.
4d')	4b'/)	.
4D'	4a'M<	.
=42	=42	=42
(4BB	(8ddL	f
.	8gg	.
4C	8g	.
.	8ee'J	.
4D'/)	4b'/)	.
4DD'	4a'M<	.
=43	=43	=43
*>A1	*>A1	*>A1
2GG^	(8gL	>
.	8a	.
.	8g	.
.	8fnJ	.
2r	8eL	.
.	8d	.
.	8c	.
.	8BJ)	]
!!LO:LB:g=z
=44:|!|:	=44:|!|:	=44:|!|:
*>B	*>B	*>B
2GG^	4g	f
.	(4dd	p
2r	4b	.
.	4cc	.
=45	=45	=45
4r	2.dd	.
(4g	.	.
4f	.	.
4e	4ee	.
=46	=46	=46
4d)	4.ffT	<
(4d	.	.
.	16eeLL	.
.	16ddJJ	.
4c)	4.eet	.
(4c	.	.
.	16ddLL	.
.	16ccJJ	.
=47	=47	=47
4B)	4.ddT	.
(4B	.	.
.	16ccLL	.
.	16bJJ	.
4A)	4.ccT	.
(4A	.	.
.	16ddLL	.
.	16eeJJ	.
=48	=48	=48
4D)	12ffL	mf
.	12ee	.
.	12ddJ	.
(4D	12ccL	.
.	12b	.
.	12aJ	.
4E	4g#	.
.	(16qqa	.
4F)	8.aTL)	.
.	32g#LL	.
.	32aJJJ)	.
!!LO:LB:g=z
=49	=49	=49
4r	2.b	>
(4E	.	.
4F#	.	]
4G#)	4ee	p
=50	=50	=50
4r	(8eeL	.
.	8ccJ)	.
*ped	*	*
4A' (4c'	(2cc	.
4A' 4c'	.	.
4A' 4c')	4ee')	.
=51	=51	=51
*Xped	*	*
4r	(8eeL	.
.	8bJ)	.
*ped	*	*
4G#' (4B'	(2b	.
4G#' 4B'	.	.
4G#' 4B')	4ee')	.
=52	=52	=52
4r	(12eeL	.
.	12dd	.
.	12ccJ	.
*	*Xtuplet	*
(4A	12ddL	.
.	12cc	.
.	12bJ	.
4B	12ccL	.
.	12b	.
.	12aJ	.
4c	12bL<	.
.	12a	.
.	12gJ	.
=53	=53	=53
.	(16qqg	.
4d)	4gT)	.
(4D	2f	.
4E	.	.
4F)	4dd)	.
!!LO:LB:g=z
=54	=54	=54
*	*tuplet	*
4r	(12ddL	.
.	12cc	.
.	12bJ	.
*	*Xtuplet	*
(4G	12ccL	.
.	12b	.
.	12aJ	.
4A	12bL	.
.	12a	.
.	12gJ	.
4B	12aL	.
.	12g	.
.	12fJ	.
=55	=55	=55
.	(16qqg	.
4c)	4fT)	.
*ped	*	*
(4C'	2e	.
4C'	.	.
4C')	4e')	.
=56	=56	=56
4r	(4gg'	mf >
(4C	4ee'	.
4D	4b-'	.
4E)	4g')	] p
=57	=57	=57
*Xped	*	*
4r	(4g#^	.
*ped	*	*
(4F'	2a	.
4F'	.	.
*Xped	*	*
4E')	4a')	.
=58	=58	=58
*ped	*	*
4r	(4aa'	.
(4D	4ff#'	.
4E	4cc'	.
4F#)	4a'\)	.
!!LO:LB:g=z
=59	=59	=59
*Xped	*	*
4r	(4a^	.
(4G	2b/)	.
4A	.	.
4B)	4gg~	.
=60	=60	=60
4r	(8ggL	.
.	8eeJ)	.
*ped	*	*
4c' (4e'	2ee	.
4c' 4e'	.	.
4c' 4e')	4gg'	.
=61	=61	=61
.	(8qaa	.
*Xped	*	*
*	*tuplet	*
4r	(12ggL)	.
.	12ff	.
.	12eeJ	.
*ped	*	*
4B' (4d'	2dd	.
4B' 4d'	.	.
4B' 4d')	4dd)	.
*Xped	*	*
*clefG2	*	*
=62	=62	=62
(4c' 4g'	(8eeL	.
.	8ff	.
4c') 4g'	8ff	<
.	8ggJ	.
(4c' 4f'	8aaL	[
.	8ff	>
4c') 4f'	8dd	.
.	8bJ)	]
=63	=63	=63
(4c' 4g'	(8eeL	.
.	8ff	.
4c') 4g'	8ff	<
.	8ggJ	.
(4c' 4f'	8aaL	[
.	8ff	>
4c') 4f'	8dd	.
.	8bJ)	]
!!LO:LB:g=z
=64	=64	=64
(4c' 4g'	(8eeL	<
.	8ff	.
4c') 4g'	8ff	.
.	8ggJ	.
(4c' 4f'	8ggL	.
.	8aa	.
4c') 4f'	8aa	.
.	8bbJ	.
=65	=65	=65
(4c' 4e'	8cccL	[
.	8gg	>
4c') 4e'	8gg	.
.	8eeJ	]
*clefF4	*	*
4F	8aaL	.
.	8ff	.
(4F	8ff	.
.	8ddJ	.
=66	=66	=66
4E)	8ggL	.
.	8ee	.
(4E	8ee	.
.	8ccJ)	.
4F	(4.ddT	.
4G)	.	.
.	16ccLL	.
.	16bJJ	.
=67	=67	=67
4C' (4G'	(8eeL)	.
.	8ff	.
4C' 4G'	8ff	<
.	8ggJ	.
4C' 4G'	8ggL	[
.	8ee	>
4C' 4G')	8b-	.
.	8gJ)	]
!!LO:LB:g=z
=68	=68	=68
4C (4B-	(8eeL	.
.	8ff	]
4C' 4B-'	8ff	<
.	8ggJ	.
4C' 4B-'	8ggL	[
.	8ee	>
4C 4B-)	8b-	.
.	8gJ)	]
=69	=69	=69
4C' (4A'	(8ffL	<
.	8gg	.
4C' 4A'	8gg	<
.	8aaJ	.
4C' 4A'	8aaL	[
.	8ff	>
4C' 4A')	8dd	.
.	8bnJ)	]
=70	=70	=70
4C (4Bn	(8ffL	.
.	8gg	.
4C' 4B'	8gg	<
.	8aaJ	.
4C' 4B'	8aaL	[
.	8ff	>
4C' 4B')	8dd	.
.	8bJ)	]
=71	=71	=71
4C 4c	(8cccL	f
.	8gg	.
(4E	8gg	.
.	8eeJ	.
4F	8aaL	.
.	8ff	.
4D	8ff	.
.	8ddJ	.
=72	=72	=72
4E)	8ggL	.
.	8ee	.
(4A	8ee	.
.	8ccJ)	.
4F	(4.ddT	.
4G	.	.
.	16ccLL	.
.	16bJJ	.
!!LO:LB:g=z
=73	=73	=73
4C 4c)	8ccL)	.
.	(8ccc	p
4C 4c	8aa	.
.	[8ff^J	.
4C [4Bn	8ffL]	.
.	8ee	.
4C' 4B']	8ee	.
.	8ddJ	.
=74	=74	=74
4C' (4c'	8eeL)	<
.	(8ccc	.
4C' 4c')	8ff	.
.	[8dd^J	.
4D' (4d'	8ddL]	.
.	8cc	.
4D' 4d')	8cc	.
.	8bJ	.
=75	=75	=75
4E' 4c'	8ccL	mf
.	8gg	.
(4F	8cc	.
.	8aaJ	.
4G')	4ee')	.
4GG'	4dd'M	.
=76	=76	=76
4C'	8cc'L	.
.	(8ccc	p
4C 4c	8aa	.
.	[8ff^J	.
4C' (4Bn'	8ffL]	.
.	8ee	.
4C' 4B')	8ee	.
.	8ddJ	.
=77	=77	=77
4C' (4c'	8eeL)	<
.	(8ccc	.
4C' 4c')	8ff	.
.	[8dd^J	.
4D' (4d'	8ddL]	.
.	8cc	.
4D' 4d')	8cc	.
.	8bJ	.
!!LO:LB:g=z
=78	=78	=78
4E 4c	8ccL	f
.	8gg	.
(4F	8cc	.
.	8aaJ	.
4G')	4ee'	.
4GG'	4dd')M	.
=79	=79	=79
(4E	(8ccL	mf
.	8gg	.
4F	8cc	.
.	8aaJ	.
4G')	4ee')	.
4GG'	4dd'M	.
=80	=80	=80
(4E	(8ccL	f
.	8gg	.
4F	8cc	.
.	8cccJ	.
4G')	4cc' 4ee')	.
4GG'	4b' 4dd'M	.
=81	=81	=81
*>B1	*>B1	*>B1
2CC^	(8ccL	>
.	8ee	.
.	8dd	.
.	8ccJ	.
2r	8bL<	.
.	8a	.
.	8g	.
.	8f#J)	]
=82:|!	=82:|!	=82:|!
*>B2	*>B2	*>B2
2CC^	2cc^	f
2r	2r	.
==	==	==
*-	*-	*-
!!!RDF**kern: > = above
!!!RDF**kern: < = below
!!!RDF**kern: + = marked note, optional, color=silver
!!!verovio: beamFrenchStyle 1
!!!URL-vhv: https://verovio.humdrum.org/?file=scarlatti/sonatas/L051K166.krn
!!!URL-pdf: https://github.com/craigsapp/scarlatti-keyboard-sonatas/blob/master/reference-edition/L051K166.pdf
!!!URL-youtube: https://www.youtube.com/watch?v=FVA6_RR-W68 David Louie, harpsichord
!!!URL-youtube: https://www.youtube.com/watch?v=j7yCavIrM1I Christoph Ullrich, piano
!!!PTL: Domenico Scarlatti: Opere complete per clavicembalo
!!!PED: Longo, Alessandro
!!!PPR: Ricordi
!!!PPP: Milan
!!!PDT: 1906-1913
!!!YEC: 2021 Craig Stuart Sapp
!!!YEM: Licence: (CC BY-NC-SA 4.0) https://creativecommons.org/licenses/by-nc-sa/4.0
!!!ENC: Craig Stuart Sapp
!!!END: 2005/06/19/
!!!EED: Craig Stuart Sapp
!!!EEV: 2020/12/30
